svgs/materials/action/model_training.svg

<svg xmlns="http://www.w3.org/2000/svg" enable-background="new 0 0 24 24" height="24" viewBox="0 0 24 24" width="24"><g><rect fill="none" height="24" width="24"/><path d="M15.5,13.5c0,2-2.5,3.5-2.5,5h-2c0-1.5-2.5-3-2.5-5c0-1.93,1.57-3.5,3.5-3.5h0C13.93,10,15.5,11.57,15.5,13.5z M13,19.5h-2 V21h2V19.5z M19,13c0,1.68-0.59,3.21-1.58,4.42l1.42,1.42C20.18,17.27,21,15.23,21,13c0-2.74-1.23-5.19-3.16-6.84l-1.42,1.42 C17.99,8.86,19,10.82,19,13z M16,5l-4-4v3c0,0,0,0,0,0c-4.97,0-9,4.03-9,9c0,2.23,0.82,4.27,2.16,5.84l1.42-1.42 C5.59,16.21,5,14.68,5,13c0-3.86,3.14-7,7-7c0,0,0,0,0,0v3L16,5z"/></g></svg>

<?xml version="1.0" encoding="UTF-8" standalone="no"?>
<svg
   enable-background="new 0 0 24 24"
   height="24"
   viewBox="0 0 24 24"
   width="24"
   version="1.1"
   id="svg8"
   sodipodi:docname="model_training.svg"
   inkscape:version="1.2 (dc2aeda, 2022-05-15)"
   xmlns:inkscape="http://www.inkscape.org/namespaces/inkscape"
   xmlns:sodipodi="http://sodipodi.sourceforge.net/DTD/sodipodi-0.dtd"
   xmlns="http://www.w3.org/2000/svg"
   xmlns:svg="http://www.w3.org/2000/svg">
  <defs
     id="defs12" />
  <sodipodi:namedview
     id="namedview10"
     pagecolor="#ffffff"
     bordercolor="#000000"
     borderopacity="0.25"
     inkscape:showpageshadow="2"
     inkscape:pageopacity="0.0"
     inkscape:pagecheckerboard="0"
     inkscape:deskcolor="#d1d1d1"
     showgrid="false"
     inkscape:zoom="9.8333333"
     inkscape:cx="12.050847"
     inkscape:cy="12"
     inkscape:window-width="1309"
     inkscape:window-height="456"
     inkscape:window-x="0"
     inkscape:window-y="25"
     inkscape:window-maximized="0"
     inkscape:current-layer="svg8" />
  <path
     id="rect2"
     style="fill:none"
     d="M 0,0 H 24 V 24 H 0 Z" />
  <path
     d="m 15.5,13.5 c 0,2 -2.5,3.5 -2.5,5 H 11 C 11,17 8.5,15.5 8.5,13.5 8.5,11.57 10.07,10 12,10 v 0 c 1.93,0 3.5,1.57 3.5,3.5 z m -2.5,6 H 11 V 21 h 2 z M 19,13 c 0,1.68 -0.59,3.21 -1.58,4.42 l 1.42,1.42 C 20.18,17.27 21,15.23 21,13 21,10.26 19.77,7.81 17.84,6.16 L 16.42,7.58 C 17.99,8.86 19,10.82 19,13 Z M 16,5 12,1 v 3 c 0,0 0,0 0,0 -4.97,0 -9,4.03 -9,9 0,2.23 0.82,4.27 2.16,5.84 L 6.58,17.42 C 5.59,16.21 5,14.68 5,13 5,9.14 8.14,6 12,6 c 0,0 0,0 0,0 v 3 z"
     id="path4" />
</svg>
